X: 1
T: King John
M: 4/4
L: 1/8
R: reel
K: Amaj
AEFA cB~B2|cefA BA~A2|cefB cF~F2|1 EFAc BAcB:|2 EFAc BAce||
aefa e~f2b|aefa cB~B2|aefa e~f2c|effe ~f3b|
aefa e~f2b|aefa cB~B2|AEFA Bcfc|eBce BAcB||
